X:6
T:New Year's Night
S:O'Neill's Waifs and Strays of Gaelic Melody.  From piping of Barney Delaney.
M:C|
E:7
K:G
gf|eA ~A2 edBd|(3efg dB GABd|eA ~A2 edBc|d2 ef g2 z f|eA ~A2 edBd|(3dfg dB GABd|edef gfga|gedB A2||
BA|G2 Bd g2 ge|dedBd2 BA|G2 Bd g2 af|gedB AcBA|G2 Bd g2 ge|dedB dega|bgag (3efg fa|gedB A2||
